X:1
T:No Peaceful Rest
T:Thomas S. Cobb
T:No Peaceful Rest
T:Public Domain
T:Public Domain
C:Thomas S. Cobb
Z:Public Domain
%%score ( 1 2 ) ( 3 4 )
L:1/8
M:4/4
K:Db
V:1 treble 
V:2 treble 
V:3 bass 
V:4 bass 
V:1
 D[DE] | [DF]2 [FA]2 [FA]2 [FA][GB] | [FA]2 [DF]2 D2 [FA]2 | [GB]2 [Gc][Gd] [=Ge][Gd] [GB]2 | %4
w: 1.~Are you|ing heav- en- ly, peace-|ful rest? Look on-|to Je- sus, dear one; It|
w: 2.~Go ye|to it, and this glo-|ry claim— Make now|this boun- ty thy run— Haste|
w: 3.~There, this|ful rest is a- wait-|ing thee— Sad soul,|thou let it be won? Seek|
 A6 AA | [Af]2 [Af]2 [Fd]2 ([Fd][Fd]) | (ed)[Gc][GB] [FA]2 A2 | [GB]2 [=Ge][Gd] [Ac][Ac] [_Gc]2 | %8
w: is there, and|it is found, Out- *|side * of His king- dom|No peace- ful rest, out- side|
w: a- way, it|tain, for sure— Out- *|side * of His king- dom||
w: thou, it, thro’|says, “Come in,” Out- *|side * of His king- dom||
 [Fd]6 ||"^Refrain" [FA]2 | (F2 F2 F2) ([FA][DF]) | ([DE]2 [=DF]2 [EG]2) [FA]2 | %12
w: of|the|king- * * dom *|God! * * None|
w: ||||
w: ||||
 [GB]2 [Gc][Gd] [=Ge][Gd] [GB]2 | A6 A2 | (A2 A2 A2) ([Ge][Fd]) | (G2 A2 =G2) [Ad]2 | %16
w: for thy breast, out- side of|the king-|God! * * * *||
w: ||||
w: ||||
 (cB)[=Ge][Gd] [Ac][Ac] [_Gc]2 | [Fd]6 |] %18
w: ||
w: ||
w: ||
V:2
 D x | x8 | x4 D2 x2 | x8 | A6 AA | x8 | G2 x3 A2 x | x8 | x6 || x2 | d6 x2 | x8 | x8 | A6 A2 | %14
w: seek-||ly||on- ly there,||there’s none!||||of|||dom of|
w: in-||for||there to ob-||there’s none!||||||||
w: peace-||wilt||Je- sus, who||there’s none!||||||||
 f6 x2 | B6 x2 | G2 x6 | x6 |] %18
w: ||||
w: ||||
w: ||||
V:3
 [D,F,][D,G,] | [D,A,]2 [D,D]2 [D,D]2 [D,D][D,D] | [D,D]2 [D,A,]2 [D,F,]2 [D,D]2 | %3
w: ~ ~|~ ~ ~ ~ ~|~ ~ ~ ~|
 [G,D]2 [G,B,][G,B,] [E,B,][E,B,] [E,D]2 | [A,,A,C]6 [A,C][A,C] | %5
w: ~ ~ ~ ~ ~ ~|~ ~ ~|
 [D,D]2 [D,D]2 [D,A,]2 ([D,A,][D,A,]) | (G,,A,,)[B,,B,][C,A,] [D,A,]2 [F,D]2 | %7
w: ~ ~ ~ ~ *|~ * ~ ~ ~ ~|
 [G,D]2 [E,D][E,B,] A,A, [A,,A,]2 | [D,A,]6 || [D,D]2 | [D,A,]2 [D,A,]2 [D,A,]2 ([D,D][F,A,]) | %11
w: ~ ~ ~ ~ ~ ~|ful|rest,|no peace- ful rest, *|
 [G,B,]2 [F,B,]2 [E,B,]2 [D,D]2 | [G,D]2 [G,B,][G,B,] [E,B,][E,B,] [E,D]2 | [A,,A,C]6 [A,C]2 | %14
w: ~ ~ ~ ~|~ ~ ~ ~ None for|thy breast,|
 [D,D]2 [D,D]2 [D,D]2 [D,D]2 | [G,D]2 [F,=D]2 [E,E]2 [F,_D]2 | [G,D]2 [E,D][E,B,] A,A, [A,,A,]2 | %17
w: none for thy breast,|||
 [D,A,]6 |] %18
w: |
V:4
 x2 | x8 | x8 | x8 | x8 | x8 | B,2 x6 | x4 A,A, x2 | x6 || x2 | x8 | x8 | x8 | x8 | x8 | x8 | %16
w: ||||||~|No peace-|||||||||
 x4 A,A, x2 | x6 |] %18
w: ||

